packages/katcn/src/icons/svg/userWithCircle.svg

<svg width="24" height="25" viewBox="0 0 24 25" fill="none" xmlns="http://www.w3.org/2000/svg">
<path d="M12 2.97607C6.5 2.97607 2 7.47607 2 12.9761C2 18.4761 6.5 22.9761 12 22.9761C17.5 22.9761 22 18.4761 22 12.9761C22 7.47607 17.5 2.97607 12 2.97607ZM12 20.9761C7.6 20.9761 4 17.3761 4 12.9761C4 8.57607 7.6 4.97607 12 4.97607C16.4 4.97607 20 8.57607 20 12.9761C20 17.3761 16.4 20.9761 12 20.9761Z" fill="black"/>
<path d="M17.5 16.3761C16.8 15.6761 16 15.1761 15.1 14.7761C15.8 13.9761 16.3 12.9761 16.3 11.7761C16.3 9.37607 14.4 7.47607 12 7.47607C9.60001 7.47607 7.70001 9.37607 7.70001 11.7761C7.70001 12.9761 8.20001 13.9761 8.90001 14.7761C8.00001 15.1761 7.20001 15.6761 6.50001 16.3761C6.10001 16.7761 6.10001 17.3761 6.50001 17.7761C6.70001 17.9761 7.00001 18.0761 7.20001 18.0761C7.50001 18.0761 7.70001 17.9761 7.90001 17.7761C9.00001 16.6761 10.4 16.0761 12 16.0761C13.5 16.0761 15 16.6761 16.1 17.7761C16.5 18.1761 17.1 18.1761 17.5 17.7761C17.9 17.3761 17.9 16.7761 17.5 16.3761ZM9.70001 11.7761C9.70001 10.4761 10.7 9.47607 12 9.47607C13.3 9.47607 14.3 10.4761 14.3 11.7761C14.3 13.0761 13.3 14.0761 12 14.0761C10.7 14.0761 9.70001 13.0761 9.70001 11.7761Z" fill="black"/>
</svg>

<svg xmlns="http://www.w3.org/2000/svg" fill="none" viewBox="0 0 24 25"><path fill="#000" d="M12 2.976c-5.5 0-10 4.5-10 10s4.5 10 10 10 10-4.5 10-10-4.5-10-10-10m0 18c-4.4 0-8-3.6-8-8s3.6-8 8-8 8 3.6 8 8-3.6 8-8 8"/><path fill="#000" d="M17.5 16.376c-.7-.7-1.5-1.2-2.4-1.6.7-.8 1.2-1.8 1.2-3 0-2.4-1.9-4.3-4.3-4.3s-4.3 1.9-4.3 4.3c0 1.2.5 2.2 1.2 3-.9.4-1.7.9-2.4 1.6-.4.4-.4 1 0 1.4.2.2.5.3.7.3.3 0 .5-.1.7-.3 1.1-1.1 2.5-1.7 4.1-1.7 1.5 0 3 .6 4.1 1.7.4.4 1 .4 1.4 0s.4-1 0-1.4m-7.8-4.6c0-1.3 1-2.3 2.3-2.3s2.3 1 2.3 2.3-1 2.3-2.3 2.3-2.3-1-2.3-2.3"/></svg>
